X: 1
T: Spirit of France  (D)
N: Country dance: triple minor longways
R: reel
Z: 2011 John Chambers <jc:trillian.mit.edu>
M: 2/4
L: 1/16
K: D
"A"[|](af) \
| "D"d2d2 d2ec | "D"d2d2 d2bg | "Em"e2g2 e2d2 | "A"cdec A2GF |
| "Em"G2G2 e2e2 | "D"F2F2 d2d2 | "A"c2d2 e2f2 | "A"ecdB A2 :|
"B"|: A2 \
| "A"A,2A2 A,2A2 | "A"{B}A2GF G2FE | "D"FABc dAGF | "A"F2E2 E2FE |
| "D"D2d2 F2f2 | "D"A2a2 a2(fd) | "Em"e2e2 "A"dcBc | "D"d2d2 d2 :|
